lib/images/logos/edition-02/svg/innoq-logo-square--whiteapricot.svg

<svg height="284" viewBox="0 0 284 284" width="284" xmlns="http://www.w3.org/2000/svg"><g fill="none"><path d="m0 0h284v284h-284z" fill="#004153"/><g transform="translate(29 114)"><path d="m.4 1.9h12.5v52.5h-12.5z" fill="#fff"/><path d="m103.3 54.4v-52.5h-12.5v32.1l-24-32.1h-5.5-6.5v32.1l-23.9-32.1h-12v52.5h12.5v-32l23.9 32h2.1 7.1 2.9v-32l23.9 32z" fill="#fff"/><g transform="translate(107)"><path d="m28.3 12.9c8.5 0 14.6 6.2 14.6 15.2s-6.1 15.2-14.6 15.2c-8.6 0-14.6-6.2-14.6-15.2s6.1-15.2 14.6-15.2m0-12c-16.2 0-27.7 11.6-27.7 27.2s11.5 27.2 27.7 27.2 27.7-11.6 27.7-27.2-11.5-27.2-27.7-27.2" fill="#fff"/><path d="m87.2 12.9c8.5 0 14.6 6.2 14.6 15.2 0 1.7-.2 3.3-.6 4.8l-1.7-2.3h-13.6l8.3 11.1c-2 1-4.4 1.6-6.9 1.6-8.5 0-14.6-6.2-14.6-15.2-.1-8.9 6-15.2 14.5-15.2m0-12c-16.2 0-27.7 11.6-27.7 27.2s11.5 27.2 27.7 27.2c5.5 0 10.2-1.5 14.2-4.1l2.3 3.1h14.7l-8.3-11.2c2.9-4.2 4.6-9.1 4.6-15 .2-15.6-11.3-27.2-27.5-27.2" fill="#ff9c66"/></g></g></g></svg>

<?xml version="1.0" encoding="UTF-8"?>
<svg width="284px" height="284px" viewBox="0 0 284 284" version="1.1" xmlns="http://www.w3.org/2000/svg" xmlns:xlink="http://www.w3.org/1999/xlink">
    <title>innoq-logo-square--bluered</title>
    <g id="Page-1" stroke="none" stroke-width="1" fill="none" fill-rule="evenodd">
        <g id="innoq-logo-square--bluered" fill-rule="nonzero">
            <polygon id="Path" fill="#004153" points="0 0 284 0 284 284 0 284"></polygon>
            <g id="Group" transform="translate(29.000000, 114.000000)">
                <polygon id="Path" fill="#FFFFFF" points="0.4 1.9 12.9 1.9 12.9 54.4 0.4 54.4"></polygon>
                <polygon id="Path" fill="#FFFFFF" points="103.3 54.4 103.3 1.9 90.8 1.9 90.8 34 66.8 1.9 61.3 1.9 54.8 1.9 54.8 34 30.9 1.9 18.9 1.9 18.9 54.4 31.4 54.4 31.4 22.4 55.3 54.4 57.4 54.4 64.5 54.4 67.4 54.4 67.4 22.4 91.3 54.4"></polygon>
                <g transform="translate(107.000000, 0.000000)" id="Shape">
                    <path d="M28.3,12.9 C36.8,12.9 42.9,19.1 42.9,28.1 C42.9,37.1 36.8,43.3 28.3,43.3 C19.7,43.3 13.7,37.1 13.7,28.1 C13.7,19.1 19.8,12.9 28.3,12.9 M28.3,0.9 C12.1,0.9 0.6,12.5 0.6,28.1 C0.6,43.7 12.1,55.3 28.3,55.3 C44.5,55.3 56,43.7 56,28.1 C56,12.5 44.5,0.9 28.3,0.9" fill="#FFFFFF"></path>
                    <path d="M87.2,12.9 C95.7,12.9 101.8,19.1 101.8,28.1 C101.8,29.8 101.6,31.4 101.2,32.9 L99.5,30.6 L85.9,30.6 L94.2,41.7 C92.2,42.7 89.8,43.3 87.3,43.3 C78.8,43.3 72.7,37.1 72.7,28.1 C72.6,19.2 78.7,12.9 87.2,12.9 M87.2,0.9 C71,0.9 59.5,12.5 59.5,28.1 C59.5,43.7 71,55.3 87.2,55.3 C92.7,55.3 97.4,53.8 101.4,51.2 L103.7,54.3 L118.4,54.3 L110.1,43.1 C113,38.9 114.7,34 114.7,28.1 C114.9,12.5 103.4,0.9 87.2,0.9" fill="#FF9C66"></path>
                </g>
            </g>
        </g>
    </g>
</svg>
